X: 34869
T: Robbie's Welcome
R: reel
M: 4/4
K: Adorian
|:A2eA cAec|BGdG B~G3|A2eA cAef|fedB GBdB|
A2eA cAec|BGdG B~G3|c~A3 B~G3|1 BedB BAG2:|2 BedB A4||
K: Amix
|:A2ce ~a3g|edB/c/d edBG|BAce ~a3g|edB/c/d ~e3c|
A2ce ~a3g|edcd edBA|BGGF G2B/c/d|1 gedB BAG2:|2 gedB A4||

